!!!!SEGMENT: pl-sa--l-1643--062_anonim--sub-tuum-praesidium.krn
!!!cenid: 16xx:1420
!!!COM: Anonim
!!!COM-rismid: pe30004985
!!!CDT:
!!!CNT:
!!!OTL: Sub tuum praesidium
!!!PDT:
!!!AGN: Sacred
!!!SMS-siglum: PL-SA
!!!SMS-shelfmark: L 1643
!!!SMS-shelfwork: 062 W
!!!SMS-variant:
!!!SMS-altvar:
!!!NIFC-rismid: 1001064757
!!!URL-scan: http://repozytorium.nifc.pl/skany/pl-sa-nut--l1643
!!!ONB-nifc: UWAGA: 8 ksiąg. Primi chori: 1mus Cantus (x), C 2dus (98-99), C 3tius (x), Bassus (45-46); Secondi chori: Primus Cantus (x), C 2dus (x), Altus (43-44), Bassus (43). UWAGA: Nie dodawać pustych linii, chyba że w rękopisie pojawiają się dodatkowe oznaczenia dotyczące pełnej obsady (a 4, a 8 itp.)
!!!AIN: 4 empty
!!!key:
**kern	**text	**kern	**text	**kern	**text	**kern	**text
*part4	*part4	*part3	*part3	*part2	*part2	*part1	*part1
*staff4	*staff4	*staff3	*staff3	*staff2	*staff2	*staff1	*staff1
*Iempty	*	*Iempty	*	*Iempty	*	*Iempty	*
*I"Baſsus 2di Chori.	*	*I"Altus secundi Chori.	*	*I"Bassus Primi Chori.	*	*I"Cantus 2dus Primi Chori	*
*I'Coro 2 B	*	*I'Coro 2 A	*	*I'Coro 1 B	*	*I'Coro 1 S 2	*
*clefC3	*	*clefC2	*	*clefC3	*	*clefC1	*
*k[]	*	*k[]	*	*k[]	*	*k[]	*
*C:	*	*C:	*	*C:	*	*C:	*
*M2/2	*	*M2/2	*	*M2/2	*	*M2/2	*
*met(c|)	*	*met(c|)	*	*met(c|)	*	*met(c|)	*
=1	=1	=1	=1	=1	=1	=1	=1
!	!	!	!	!LO:SIC:v:l:s=Sub	!	!	!
00r	.	00r	.	2.g\	Sup	1g\	Sub
.	.	.	.	4f\	.	.	.
=2-	=2-	=2-	=2-	=2-	=2-	=2-	=2-
.	.	.	.	1e\	tu-	1g\	tu-
=3-	=3-	=3-	=3-	=3-	=3-	=3-	=3-
.	.	.	.	2d\	-um	2a\	-um
!	!	!	!	!LO:SIC:v:l:s=prae-	!	!	!
.	.	.	.	2G/	pre-	2b\	prae-
=4-	=4-	=4-	=4-	=4-	=4-	=4-	=4-
.	.	.	.	2.c/	-si-	2.cc\	-si-
.	.	.	.	4c/	-di-	4cc\	-di-
=5-	=5-	=5-	=5-	=5-	=5-	=5-	=5-
1r	.	1r	.	1G/	-um	1b\	-um,
=6-	=6-	=6-	=6-	=6-	=6-	=6-	=6-
!	!	!LO:SIC:v:l:s=Sub	!	!	!	!	!
2.g\	Sub	1g\	Sup	1r	.	00r	.
4f\	.	.	.	.	.	.	.
=7-	=7-	=7-	=7-	=7-	=7-	=7-	=7-
1e\	tu-	1g\	tu-	1r	.	.	.
=8-	=8-	=8-	=8-	=8-	=8-	=8-	=8-
!	!	!LO:TX:a:t=P:problem=# below	!	!	!	!	!
2d\	-um	2f#X\	-um	1r	.	.	.
!	!	!LO:SIC:v:l:s=Prae-	!	!	!	!	!
2G/	prae-	2g\	Pre-	.	.	.	.
=9-	=9-	=9-	=9-	=9-	=9-	=9-	=9-
2.c/	-si-	2.g\	-si-	1r	.	.	.
4c/	-di-	4g\	-di-	.	.	.	.
=10-	=10-	=10-	=10-	=10-	=10-	=10-	=10-
!	!	!	!	!	!	!LO:TX:t=P:problem=nadmiarowa pauza w tym głosie (0r zamiast 2r)	!
!	!	!	!	!	!	!LO:N:vis=0	!
2G/	-um	2g\	-um	2r	.	2r	.
2r	.	2r	.	2g\	Con-	2b\	con-
=11-	=11-	=11-	=11-	=11-	=11-	=11-	=11-
1r	.	1r	.	4c/	-fu-	2.g/	-fu-
.	.	.	.	4d/	.	.	.
.	.	.	.	4e\	-[g]i-	.	.
.	.	.	.	4f\	.	4a\	-gi-
=12-	=12-	=12-	=12-	=12-	=12-	=12-	=12-
2r	.	2r	.	2g\	-mus	2b\	-mus,
2g\	Con-	2g\	Con-	2r	.	2r	.
=13-	=13-	=13-	=13-	=13-	=13-	=13-	=13-
4c/	-fu-	2.e/	-fu-	1r	.	1r	.
4d\	.	.	.	.	.	.	.
4e\	-gi-	.	.	.	.	.	.
4f\	.	4fny\	-[g]i-	.	.	.	.
=14-	=14-	=14-	=14-	=14-	=14-	=14-	=14-
2g\	-mus	2g\	-mus	2r	.	2r	.
2r	.	2r	.	2g\	Con-	2b\	con-
=15-	=15-	=15-	=15-	=15-	=15-	=15-	=15-
1r	.	1r	.	4c/	-fu-	2.g/	-fu-
.	.	.	.	4d/	.	.	.
.	.	.	.	4e\	-[g]i-	.	.
.	.	.	.	4f\	.	4a\	-gi-
=16-	=16-	=16-	=16-	=16-	=16-	=16-	=16-
!	!	!	!	!LO:LB:g=original	!	!	!
2r	.	2r	.	2g\	-mus	2b\	-mus,
2g\	Con-	2g\	Con-	2r	.	2r	.
=17-	=17-	=17-	=17-	=17-	=17-	=17-	=17-
4c/	-fu-	2.e/	-fu-	1r	.	1r	.
4d\	.	.	.	.	.	.	.
4e\	-gi-	.	.	.	.	.	.
4f\	.	4f\	-[g]i-	.	.	.	.
=18-	=18-	=18-	=18-	=18-	=18-	=18-	=18-
*	*	*custos:g	*	*	*	*	*
2g\	-mus	2g\	-mus	2r	.	2r	.
!	!	!LO:LB:g=original	!	!	!	!	!
2r	.	2r	.	1c\	San-	1cc\	San-
=19-	=19-	=19-	=19-	=19-	=19-	=19-	=19-
0r	.	0r	.	.	.	.	.
.	.	.	.	2B/	-cta	2dd\	-cta
=20-	=20-	=20-	=20-	=20-	=20-	=20-	=20-
.	.	.	.	2c/	de-	2cc\	de-
.	.	.	.	2A/	-i	2cc\	-i
=21-	=21-	=21-	=21-	=21-	=21-	=21-	=21-
1r	.	1r	.	2.G/	ge-	2.b\	ge-
.	.	.	.	4G/	-ni-	4b\	-ni-
=22-	=22-	=22-	=22-	=22-	=22-	=22-	=22-
*custos:c	*	*	*	*	*	*	*
2r	.	2r	.	2c/	-t[r]ix	2cc\	-trix
!LO:LB:g=original	!	!	!	!	!	!	!
1c\	San-	1g\	San-	2r	.	2r	.
=23-	=23-	=23-	=23-	=23-	=23-	=23-	=23-
.	.	.	.	0r	.	0r	.
2G/	-cta	2g\	-cta	.	.	.	.
=24-	=24-	=24-	=24-	=24-	=24-	=24-	=24-
2A/	De-	2e/	de-	.	.	.	.
!	!	!LO:SIC:v:l:s=-i	!	!	!	!	!
2B/	-i	2g\	-(us)	.	.	.	.
=25-	=25-	=25-	=25-	=25-	=25-	=25-	=25-
!	!	!	!	!	!	!	!
2.c/	ge-	2.g\	Ge-	1r	.	1r	.
4c/	-ni-	4g\	-ni-	.	.	.	.
=26-	=26-	=26-	=26-	=26-	=26-	=26-	=26-
*	*	*	*	*	*	*custos:b	*
2G/	-trix	2g\	-trix	2r	.	2r	.
!	!	!	!	!	!	!LO:LB:g=original	!
2r	.	2r	.	2G/	noſ-	2b\	nos-
=27-	=27-	=27-	=27-	=27-	=27-	=27-	=27-
2r	.	2r	.	2c/	-tras	2cc\	-tras
2c/	nos-	2g\	Nos-	2r	.	2r	.
=28-	=28-	=28-	=28-	=28-	=28-	=28-	=28-
2g\	-tras	2g\	-tras	2r	.	2r	.
2r	.	2r	.	1c\	de-	1cc\	de-
=29-	=29-	=29-	=29-	=29-	=29-	=29-	=29-
0r	.	0r	.	.	.	.	.
.	.	.	.	2A/	-pre-	2cc\	-pre-
=30-	=30-	=30-	=30-	=30-	=30-	=30-	=30-
.	.	.	.	2.d\	-ca-	2dd\	-ca-
.	.	.	.	.	.	2.dd\	-ti-
!	!	!	!	!LO:SIC:v:l:s=-ti-	!	!	!
.	.	.	.	4d\	-ci-	.	.
=31-	=31-	=31-	=31-	=31-	=31-	=31-	=31-
1r	.	1r	.	1A/	-o-	.	.
.	.	.	.	.	.	8cc\L	.
.	.	.	.	.	.	8b\J	.
!	!	!	!	!	!	!LO:TX:a:t=P:problem=# below	!
.	.	.	.	.	.	2cc#X\	-o-
=32-	=32-	=32-	=32-	=32-	=32-	=32-	=32-
2r	.	2r	.	2d\	-nes	2dd\	-nes
1c\	ne	1g\	Ne	2r	.	2r	.
=33-	=33-	=33-	=33-	=33-	=33-	=33-	=33-
.	.	.	.	0r	.	0r	.
2B/	de-	2g\	de-	.	.	.	.
=34-	=34-	=34-	=34-	=34-	=34-	=34-	=34-
2.A/	-spi-	2.e/	-spi-	.	.	.	.
4A/	-ci-	4f\	-ci-	.	.	.	.
=35-	=35-	=35-	=35-	=35-	=35-	=35-	=35-
2G/	-as	2g\	-as	2r	.	2r	.
2r	.	2r	.	1d\	ne	1dd\	ne
=36-	=36-	=36-	=36-	=36-	=36-	=36-	=36-
0r	.	0r	.	.	.	.	.
.	.	.	.	2d\	de-	2dd\	des-
=37-	=37-	=37-	=37-	=37-	=37-	=37-	=37-
!	!	!	!	!LO:LB:g=original	!	!	!
.	.	.	.	2.A/	-spi-	2.ccny\	-pi-
.	.	.	.	4A/	-ci-	4cc\	-ci-
=38-	=38-	=38-	=38-	=38-	=38-	=38-	=38-
*	*	*custos:g	*	*	*	*	*
2r	.	2r	.	2d\	-as	2dd\	-as
!	!	!LO:LB:g=original	!	!	!	!	!
1c\	in	1g\	i[n]	1c\	in	2.g/	in
=39-	=39-	=39-	=39-	=39-	=39-	=39-	=39-
.	.	.	.	.	.	.	.
.	.	.	.	.	.	4a\	.
2g\	ne-	2g\	ne-	2G/	ne-	2b\	ne-
=40-	=40-	=40-	=40-	=40-	=40-	=40-	=40-
!	!	!	!	!LO:SIC:v:l:s=-ces-	!	!	!
2c/	-ceſ-	2g\	-c[es]-	2c/	-ce-	2cc\	-ces-
*custos:d	*	*	*	*	*	*	*
2g\	-si-	2d/	-si-	2G/	-si-	2b\	-si-
=41-	=41-	=41-	=41-	=41-	=41-	=41-	=41-
!LO:LB:g=original	!	!	!	!	!	!	!
2.d\	-ta-	2.d/	-ta-	2.d\	-ta-	2.a\	-ta-
4d\	-ti-	4d/	-ti-	4d\	-ti-	4a\	-ti-
=42-	=42-	=42-	=42-	=42-	=42-	=42-	=42-
!LO:TX:t=P:problem=podwójna kreska pseudotaktowa	!	!	!	!	!	!	!
1g\	-bus	1d/	-bus	1G/	-bus	1b\	-bus
=43-	=43-	=43-	=43-	=43-	=43-	=43-	=43-
*M3/2	*	*M3/2	*	*M3/2	*	*M3/2	*
2G/	Sed	2g\	Sed	1.r	.	1.r	.
2G/	a-	2g\	a-	.	.	.	.
2G/	-pe-	2g\	-pe-	.	.	.	.
=44-	=44-	=44-	=44-	=44-	=44-	=44-	=44-
2.c/	-ri-	2.g\	-ri-	2c/	Sed	2cc\	sed
.	.	.	.	2c/	a-	2cc\	a-
4c/	-cu-	4g\	-cu-	.	.	.	.
2c/	-lis	2g,<\	-lis	2c/	-pe-	2cc\	-pe-
=45-	=45-	=45-	=45-	=45-	=45-	=45-	=45-
2f\	sed	2a\	Sed	2.f\	-ri-	2.cc\	-ri-
2f\	a-	2f\	a-	.	.	.	.
*	*	*	*	*	*	*custos:c	*
.	.	.	.	4f\	-cu-	4cc\	-cu-
!	!	!	!	!	!	!LO:PB:g=original	!
2f\	-pe-	2f\	-pe-	2f\	-lis	2cc\	-lis,
=46-	=46-	=46-	=46-	=46-	=46-	=46-	=46-
*	*	*custos:a	*	*	*	*	*
!	!	!LO:TX:t=P:problem=kropka po łamaniu systemu	!	!	!	!	!
2.d\	-ri-	2.a\	-ri-	2d\	sed	2a\	sed
.	.	.	.	2d\	a-	2a\	a-
!	!	!LO:LB:g=original	!	!	!	!	!
4d\	-cu-	4a\	-cu-	.	.	.	.
2d\	-lis	2d/	-lis	2d\	-pe-	2dd\	-pe-
=47-	=47-	=47-	=47-	=47-	=47-	=47-	=47-
1G/	cun-	1g\	cun-	2.g\	-ri-	2.dd\	-ri-
.	.	.	.	4g\	-cu-	4dd\	-cu-
*	*	*	*	*custos:c	*	*	*
1c\	-ctis	1g\	-ctis	2g\	-lis;	2dd\	-lis,
=48-	=48-	=48-	=48-	=48-	=48-	=48-	=48-
!	!	!	!	!LO:LB:g=original	!	!	!
.	.	.	.	2c/	sed	2cc\	sed
!LO:N:vis=2	!	!	!	!	!	!	!
!LO:TX:t=P:problem=błedna pauza 1r (powinna być 2r)	!	!	!	!	!	!	!
1r	.	1r	.	2c/	a-	2cc\	a-
.	.	.	.	2c/	-pe-	2cc\	-pe-
=49-	=49-	=49-	=49-	=49-	=49-	=49-	=49-
0.r	.	0.r	.	2.f\	-ri-	2.cc\	-ri-
.	.	.	.	4f\	-cu-	4cc\	-cu-
.	.	.	.	2g\	-lis	2b\	-lis
=50-	=50-	=50-	=50-	=50-	=50-	=50-	=50-
.	.	.	.	1d\	cunc-	1a\	cunc-
.	.	.	.	2G/	-tis	2b\	-tis,
=51-	=51-	=51-	=51-	=51-	=51-	=51-	=51-
1c\	li-	2.g\	li-	1.r	.	1.r	.
.	.	4a\	.	.	.	.	.
*custos:c	*	*	*	*	*	*	*
2B/	-be-	2b\	-be-	.	.	.	.
=52-	=52-	=52-	=52-	=52-	=52-	=52-	=52-
!LO:LB:g=original	!	!	!	!	!	!	!
1c\	-ra	1g\	-ra	1c\	li-	1g\	li-
2G/	nos	2g\	nos	2B/	-be-	2dd\	-be-
=53-	=53-	=53-	=53-	=53-	=53-	=53-	=53-
1c\	li-	1e\	li-	1c\	-ra	1g\	-ra
2B/	-be-	2g\	-be-	2G/	nos	2g,</	nos,
=54-	=54-	=54-	=54-	=54-	=54-	=54-	=54-
*	*	*	*	*	*ij	*	*
1c\	-ra	1e\	-ra	1c\	li-	1g\	li-
2G/	nos	2g\	nos	2B/	-be-	2dd\	-be-
=55-	=55-	=55-	=55-	=55-	=55-	=55-	=55-
1c\	li-	1e\	li-	1c\	-ra	1g\	-ra
2B/	-be-	2g\	-be-	2G/	nos	2g,</	nos,
*	*	*	*	*	*Xij	*	*
=56-	=56-	=56-	=56-	=56-	=56-	=56-	=56-
1c\	-ra	1e\	-ra	1c\	li-	1ee\	li-
2G/	nos	2g\	nos	2B/	-be-	2dd\	-be-
=57-	=57-	=57-	=57-	=57-	=57-	=57-	=57-
*	*	*custos:g	*	*	*	*	*
1.r	.	1.r	.	1c\	-ra	1cc\	-ra
*	*	*	*	*	*	*custos:g	*
.	.	.	.	2G/	nos	2b\	nos
=58-	=58-	=58-	=58-	=58-	=58-	=58-	=58-
!	!	!	!	!	!	!LO:LB:g=original	!
1c\	Vir-	1e\	Vir	1c\	vir-	1g\	vir-
!	!	!LO:TX:t=P:problem=brakujący dźwięk?	!	!	!	!	!
2G/	-go	2ryy	.	2g\	-go,	2dd\	-go,
=59-	=59-	=59-	=59-	=59-	=59-	=59-	=59-
*M2/2	*	*M2/2	*	*M2/2	*	*M2/2	*
*met(c|)	*	*met(c|)	*	*met(c|)	*	*met(c|)	*
*	*	*	*	*custos:G	*	*	*
!	!	!LO:PB:g=original	!	!	!	!	!
1c\	ſem-	2.e/	Sem-	1c\	sem-	1cc\	sem-
.	.	4f\	.	.	.	.	.
=60-	=60-	=60-	=60-	=60-	=60-	=60-	=60-
!	!	!	!	!LO:LB:g=original	!	!	!
2g\	-per	2g\	-per	2G/	-per	2b\	-per
4g\	glo-	4d/	glo-	4G/	glo-	4b\	glo-
4g\	-ri-	4d/	-ri-	4G/	-ri-	4cc\	-ri-
=61-	=61-	=61-	=61-	=61-	=61-	=61-	=61-
1g\	-o-	1d/	-o-	1G/	-o-	2.dd\	-o-
.	.	.	.	.	.	4cc\	.
=62-	=62-	=62-	=62-	=62-	=62-	=62-	=62-
2g\	-sa	2d/	-sa	2G/	-sa	2b\	-sa,
2r	.	2r	.	2r	.	2r	.
=63-	=63-	=63-	=63-	=63-	=63-	=63-	=63-
0r	.	0r	.	0r	.	0r	.
=64-	=64-	=64-	=64-	=64-	=64-	=64-	=64-
.	.	.	.	.	.	.	.
=65-	=65-	=65-	=65-	=65-	=65-	=65-	=65-
2r	.	2r	.	2r	.	2r	.
4c/	glo-	4e/	glo-	4c/	glo-	4cc\	glo-
4c/	-ri-	4c/	-ri-	4c/	-ri-	4dd\	-ri-
=66-	=66-	=66-	=66-	=66-	=66-	=66-	=66-
1c\	-o-	1g\	-o-	1c\	-o-	2.ee\	-o-
.	.	.	.	.	.	4dd\	.
=67-	=67-	=67-	=67-	=67-	=67-	=67-	=67-
*custos:a	*	*	*	*	*	*	*
2c/	-sa	2e/	-sa	2c/	-sa	2cc\	-ſa,
!LO:LB:g=original	!	!	!	!	!	!	!
2r	.	2r	.	2r	.	2r	.
=68-	=68-	=68-	=68-	=68-	=68-	=68-	=68-
0r	.	0r	.	0r	.	0r	.
=69-	=69-	=69-	=69-	=69-	=69-	=69-	=69-
.	.	.	.	.	.	.	.
=70-	=70-	=70-	=70-	=70-	=70-	=70-	=70-
2r	.	2r	.	2r	.	2r	.
*	*	*	*ij	*	*ij	*	*
4a\	glo-	4f\	glo-	4d\	glo-	4dd\	glo-
4a\	-ri-	4d/	-ri-	4d\	-ri-	4ee\	-ri-
=71-	=71-	=71-	=71-	=71-	=71-	=71-	=71-
1d\	-o-	1f\	-o-	1d\	-o-	2.ff\	-o-
.	.	.	.	.	.	8ee\L	.
.	.	.	.	.	.	8dd\J	.
=72-	=72-	=72-	=72-	=72-	=72-	=72-	=72-
2g\	-sa	2c/	-sa	2c/	-sa	2ee\	-sa,
*	*	*	*	*	*	*	*
2r	.	2r	.	2r	.	2r	.
=73-	=73-	=73-	=73-	=73-	=73-	=73-	=73-
0r	.	0r	.	0r	.	0r	.
=74-	=74-	=74-	=74-	=74-	=74-	=74-	=74-
.	.	.	.	.	.	.	.
=75-	=75-	=75-	=75-	=75-	=75-	=75-	=75-
2r	.	2r	.	1r	.	1r	.
4c/	glo-	4g\	glo-	.	.	.	.
4c/	-ri-	4g\	-ri-	.	.	.	.
=76-	=76-	=76-	=76-	=76-	=76-	=76-	=76-
1G/	-o-	1g\	-o-	2r	.	2r	.
.	.	.	.	4g\	glo-	4b\	glo-
.	.	.	.	4g\	-ri-	4b\	-ri-
=77-	=77-	=77-	=77-	=77-	=77-	=77-	=77-
2c/	-sa	2g\	-sa	4c/	-o-	1cc\	-o-
.	.	.	.	4d\	.	.	.
4c/	glo-	4e/	glo-	4e\	.	.	.
*	*	*	*	*custos:g	*	*	*
4c/	-ri-	4e/	-ri-	4f\	.	.	.
=78-	=78-	=78-	=78-	=78-	=78-	=78-	=78-
*	*	*custos:d	*	*	*	*	*
!	!	!	!	!LO:PB:g=original	!	!	!
4G/	-o-	2g\	-o-	2g\	-sa	2b\	-ſa,
4A/	.	.	.	.	.	.	.
!	!	!LO:LB:g=original	!	!	!	!	!
4B/	.	2d/	.	4g\	glo-	4b\	glo-
4c/	.	.	.	4g\	-ri-	4b\	-ri-
=79-	=79-	=79-	=79-	=79-	=79-	=79-	=79-
1d\	-sa	1d/	-sa	1d\	-o-	1dd\	-o-
*	*	*	*Xij	*	*	*	*
=80-	=80-	=80-	=80-	=80-	=80-	=80-	=80-
*	*	*	*	*	*	*custos:cc	*
2r	.	2r	.	2c/	-sa	2cc\	-ſa,
!	!	!	!	!	!	!LO:LB:g=original	!
4c/	glo-	4g\	glo-	4c/	glo-	4cc\	glo-
4c/	-ri-	4g\	-ri-	4c/	-ri-	4cc\	-ri-
=81-	=81-	=81-	=81-	=81-	=81-	=81-	=81-
1G/	-o-	1g\	-o-	1g\	-o-	1dd\	-o-
=82-	=82-	=82-	=82-	=82-	=82-	=82-	=82-
2c/	-sa	2g\	-sa	2c/	-sa	2ee\	-sa,
2g\	et	2g\	&	2r	.	2r	.
=83-	=83-	=83-	=83-	=83-	=83-	=83-	=83-
2c/	be-	2g\	Be-	0r	.	0r	.
2B/	-ne-	2g\	-ne-	.	.	.	.
=84-	=84-	=84-	=84-	=84-	=84-	=84-	=84-
1c\	-dic-	2.e/	-dic-	.	.	.	.
.	.	4f\	.	.	.	.	.
=85-	=85-	=85-	=85-	=85-	=85-	=85-	=85-
2G/	-ta	2g\	-ta	2r	.	2r	.
2r	.	2r	.	4c/	glo-	4cc\	glo-
.	.	.	.	4c/	-ri-	4cc\	-ri-
=86-	=86-	=86-	=86-	=86-	=86-	=86-	=86-
1r	.	1r	.	1f\	-o-	1cc\	-o-
=87-	=87-	=87-	=87-	=87-	=87-	=87-	=87-
*custos:c	*	*	*	*	*	*	*
2r	.	2r	.	2c/	-sa	2cc\	-sa,
*	*	*	*	*	*Xij	*	*
!LO:LB:g=original	!	!	!	!	!	!	!
2c/	et	2g\	&	2r	.	2r	.
=88-	=88-	=88-	=88-	=88-	=88-	=88-	=88-
2A/	be-	2a\	Be-	0r	.	0r	.
2c/	-ne-	2g\	-ne-	.	.	.	.
=89-	=89-	=89-	=89-	=89-	=89-	=89-	=89-
1G/	-di-	1g\	-di-	.	.	.	.
=90-	=90-	=90-	=90-	=90-	=90-	=90-	=90-
2c/	-cta	2g\	-cta	2r	.	2r	.
2r	.	2r	.	2c/	&	2cc\	et
=91-	=91-	=91-	=91-	=91-	=91-	=91-	=91-
0r	.	0r	.	2f\	Be-	2cc\	be-
.	.	.	.	2c/	-ne-	2.cc\	-ne-
=92-	=92-	=92-	=92-	=92-	=92-	=92-	=92-
.	.	.	.	1G/	-di-	.	.
.	.	.	.	.	.	8b\L	.
.	.	.	.	.	.	8a\J	.
.	.	.	.	.	.	2b\	-di-
=93-	=93-	=93-	=93-	=93-	=93-	=93-	=93-
2r	.	2r	.	2c/	-cta	2cc,<\	-cta
!	!	!	!	!LO:LB:g=original	!	!	!
2G/	et	2d/	et	2f\	&	2b\	et
=94-	=94-	=94-	=94-	=94-	=94-	=94-	=94-
2c/	be-	2g\	Be-	2c/	Be-	2cc\	be-
2g\	-ne-	2d/	-ne-	2G/	-ne-	2b\	-ne-
=95-	=95-	=95-	=95-	=95-	=95-	=95-	=95-
4c/	-di-	1g\	-di-	1c\	-di-	1cc\	-di-
4d\	.	.	.	.	.	.	.
4e\	.	.	.	.	.	.	.
4f\	.	.	.	.	.	.	.
=96-	=96-	=96-	=96-	=96-	=96-	=96-	=96-
!	!	!	!	!	!	!	!
0g\l	-cta	0B/l	-cta	0G/l	-cta.	0b\;;l	-cta?
==	==	==	==	==	==	==	==
*-	*-	*-	*-	*-	*-	*-	*-
!!!system-decoration: [(s1,s2)][(s3,s4)]
!!!ENC: Filip Voros
!!!END: 2021-10-17
!!!RDF**kern: l = terminal long
!!!RDF**kern: < = below
!!!EED: Andrzej Borzym
!!!EST: 2021-10-22
